X:1
T:The Departure
T:The Departure (version)
T:The Leftovers score
T:Max Richter
C:Max Richter
%%score { 1 | 2 }
L:1/8
Q:1/4=117
M:4/4
K:Eb
V:1 treble nm="Piano" snm="Pno."
V:2 bass 
V:1
"^Allegro moderato""_legato" C/E/G/E/ G/E/G/E/ C/E/G/E/ G/E/G/E/ | %1
 C/E/G/E/ G/E/G/E/ C/E/G/E/ G/E/G/E/ | C/F/A/F/ A/F/A/F/ C/F/A/F/ A/F/A/F/ | %3
 C/F/A/F/ A/F/A/F/ C/F/A/F/ A/F/A/F/ | C/D/F/D/ F/D/F/D/ C/D/F/D/ F/D/F/D/ | %5
 C/D/F/D/ F/D/F/D/ C/D/F/D/ F/D/F/D/ | C/E/G/E/ G/E/G/E/ C/E/G/E/ G/E/G/E/ | %7
 C/E/G/E/ G/E/G/E/ C/E/G/E/ G/E/G/E/ | B,/E/G/E/ G/E/G/E/ B,/E/G/E/ G/E/G/E/ | %9
 =B,/D/G/D/ G/D/G/D/ B,/D/G/D/ G/D/G/D/ | C/E/G/E/ G/E/G/E/ C/E/G/E/ G/E/G/E/ | %11
 C/E/A/E/ A/E/A/E/ C/E/A/E/ A/E/A/E/ | B,/E/G/E/ G/E/G/E/ B,/E/G/E/ G/E/G/E/ | %13
 =B,/D/G/D/ G/D/G/D/ B,/D/G/D/ G/D/G/D/ | C/E/G/E/ G/E/G/E/ C/E/G/E/ G/E/G/E/ | %15
 C/E/A/E/ A/E/A/E/ C/E/A/E/ A/E/A/E/ | B,/E/G/E/ G/E/G/E/ B,/E/G/E/ G/E/G/E/ | %17
 =B,/D/G/D/ G/D/G/D/ B,/D/G/D/ G/D/G/D/ | C/E/G/E/ G/E/G/E/ C/E/G/E/ G/E/G/E/ | %19
 C/E/A/E/ A/E/A/E/ C/E/A/E/ A/E/A/E/ | B,/E/G/E/ G/E/G/E/ B,/E/G/E/ G/E/G/E/ | %21
 =B,/D/G/D/ G/D/G/D/ B,/D/G/D/ G/D/G/D/ | C/E/G/E/ G/E/G/E/ C/E/G/E/ G/E/G/E/ | %23
 C/E/A/E/ A/E/A/E/ C/E/A/E/ A/E/A/E/ | B,/E/G/E/ G/E/G/E/ B,/E/G/E/ G/E/G/E/ | %25
 =B,/D/G/D/ G/D/G/D/ B,/D/G/D/ G/D/G/D/ | C/E/G/E/ G/E/G/E/ C/E/G/E/ G/E/G/E/ | %27
 C/E/A/E/ A/E/A/E/ C/E/A/E/ A/E/A/E/ | B,/E/G/E/ G/E/G/E/ B,/E/G/E/ G/E/G/E/ | %29
 =B,/D/G/D/ G/D/G/D/ B,/D/G/D/ G/D/G/D/ | C/E/G/E/ G/E/G/E/ C/E/G/E/ G/E/G/E/ | %31
 C/E/G/E/ G/E/G/E/ C/E/G/E/ G/E/G/E/ | C/E/G/E/ G/E/G/E/ C/E/G/E/ G/E/G/E/ |] %33
V:2
!p! z8 | z8 | z8 | z8 | z8 | z8 | z8 | z8 | z8 |[K:treble] z6 d2 | c8 | z6 e2 | d8 | z6 d2 | c8 | %15
 z6 f2 | e8 | z6 f2 | e4[K:bass] [C,,C,]4 | [A,,,A,,]6[K:treble] f2 | e4[K:bass] [E,,,E,,]4 | %21
 [G,,,G,,]6[K:treble] e2 | d4[K:bass] [C,,C,]4 | [A,,,A,,]4 [A,,,A,,]2[K:treble] f2 | %24
 e4[K:bass] [E,,,E,,]4 | [G,,,G,,]4 [G,,,G,,]2[K:treble] e2 | d4[K:bass] [C,,C,]4 | %27
 [A,,,A,,]4 [A,,,A,,]2[K:treble] f2 | e4[K:bass] [E,,,E,,]4 | [G,,,G,,]4 [G,,,G,,]2[K:treble] e2 | %30
 c8 | z8 | z8 |] %33

